static/assets/images/tokens/msusd.svg

<svg width="256" height="256" viewBox="0 0 256 256" fill="none" xmlns="http://www.w3.org/2000/svg">
<path d="M128 256C153.316 256 178.064 248.493 199.113 234.428C220.163 220.363 236.569 200.372 246.257 176.984C255.945 153.595 258.48 127.858 253.541 103.028C248.602 78.1989 236.411 55.3915 218.51 37.4904C200.609 19.5893 177.802 7.39845 152.972 2.45954C128.142 -2.47937 102.406 0.0554609 79.0169 9.74348C55.628 19.4315 35.6371 35.8376 21.5723 56.8871C7.50747 77.9366 0.000402048 102.684 0.000402048 128C-0.0418091 144.821 3.2402 161.485 9.65785 177.033C16.0755 192.582 25.5023 206.71 37.3966 218.604C49.2909 230.498 63.4183 239.925 78.967 246.343C94.5158 252.76 111.179 256.042 128 256Z" fill="url(#paint0_linear_10100_672)"/>
<path d="M171 150.396C171 127.95 157.543 120.168 130.605 116.952C111.35 114.38 107.514 109.234 107.514 100.23C107.514 91.2261 113.928 85.4378 126.743 85.4378C138.301 85.4378 144.703 89.2967 147.91 98.944C148.254 99.8744 148.876 100.676 149.691 101.24C150.506 101.803 151.474 102.102 152.464 102.095H162.726C163.32 102.113 163.912 102.009 164.465 101.789C165.018 101.569 165.52 101.238 165.94 100.816C166.361 100.395 166.691 99.8913 166.91 99.3371C167.13 98.7828 167.234 98.1894 167.216 97.5934V96.9502C165.974 89.9803 162.472 83.6167 157.252 78.8483C152.033 74.0798 145.389 71.1735 138.353 70.5809V55.1452C138.353 52.5726 136.429 50.6432 133.222 50H123.601C121.035 50 119.111 51.9295 118.469 55.1452V69.9892C99.1761 72.6261 86.9896 85.4249 86.9896 101.504C86.9896 122.728 99.8175 131.102 126.756 134.305C144.715 137.52 150.552 141.328 150.552 151.67C150.552 162.012 141.573 169.035 129.386 169.035C112.71 169.035 107.001 162.024 105.013 152.313C104.829 151.228 104.272 150.242 103.437 149.527C102.602 148.812 101.544 148.414 100.446 148.402H89.491C88.8976 148.388 88.3074 148.495 87.7564 148.716C87.2053 148.938 86.7047 149.269 86.285 149.69C85.8652 150.111 85.535 150.613 85.3144 151.165C85.0937 151.718 84.9872 152.309 85.0012 152.905V153.548C87.5668 169.627 97.8292 181.203 118.995 184.419V199.855C118.995 202.427 120.92 204.357 124.127 205H133.748C136.313 205 138.237 203.071 138.879 199.855V184.419C158.121 181.203 170.949 167.697 170.949 150.332L171 150.396Z" fill="white"/>
<defs>
<linearGradient id="paint0_linear_10100_672" x1="0.000397662" y1="6.19684e-05" x2="256" y2="256" gradientUnits="userSpaceOnUse">
<stop stop-color="#596AEC"/>
<stop offset="1" stop-color="#60E2E9"/>
</linearGradient>
</defs>
</svg>

<svg xmlns="http://www.w3.org/2000/svg" fill="none" viewBox="0 0 256 256"><path fill="url(#paint0_linear_10100_672)" d="M128 256a128 128 0 0 0 118.257-79.016A128.002 128.002 0 0 0 152.972 2.46 128 128 0 0 0 0 128a127.68 127.68 0 0 0 37.397 90.604A127.7 127.7 0 0 0 128 256"/><path fill="#fff" d="M171 150.396c0-22.446-13.457-30.228-40.395-33.444-19.255-2.572-23.091-7.718-23.091-16.722s6.414-14.792 19.229-14.792c11.558 0 17.96 3.859 21.167 13.506a4.82 4.82 0 0 0 4.554 3.151h10.262a4.35 4.35 0 0 0 3.214-1.279 4.37 4.37 0 0 0 1.276-3.223v-.643a32.16 32.16 0 0 0-9.964-18.102 32 32 0 0 0-18.899-8.267V55.145c0-2.572-1.924-4.502-5.131-5.145h-9.621c-2.566 0-4.49 1.93-5.132 5.145V69.99c-19.293 2.637-31.48 15.436-31.48 31.515 0 21.224 12.828 29.598 39.767 32.801 17.959 3.215 23.796 7.023 23.796 17.365s-8.979 17.365-21.166 17.365c-16.676 0-22.385-7.011-24.373-16.722a4.7 4.7 0 0 0-1.576-2.786 4.68 4.68 0 0 0-2.991-1.125H89.491a4.38 4.38 0 0 0-4.177 2.763 4.4 4.4 0 0 0-.313 1.74v.643c2.566 16.079 12.828 27.655 33.994 30.871v15.436c0 2.572 1.925 4.502 5.132 5.145h9.621c2.565 0 4.489-1.929 5.131-5.145V184.42c19.242-3.216 32.07-16.722 32.07-34.087z"/><defs><linearGradient id="paint0_linear_10100_672" x1="0" x2="256" y1="0" y2="256" gradientUnits="userSpaceOnUse"><stop stop-color="#596AEC"/><stop offset="1" stop-color="#60E2E9"/></linearGradient></defs></svg>
